X:145
T: Roscommon
S: "First Collection of Traditional Irish Music" (M.Mulvihill)
Z: B.Black
L: 1/8
M: 6/8
R: jig
K: D
F/G/|A2D FED|A2B =cAF|G2E EDE|=c2d cAG|
A2D FED|A2B =cAF|GEE =cEE|DED D2 :|
A|d2 e fed|e2 d cAF|G2 E EDE|=c2 d cAG|
Add fed|e2 d cAF|GEE =cEE|DED D2 :|
